X:44
T:James Dumbelton of Dartington's
M:6/8
L:1/8
R:Jig
C:Gris Sanderson
Q:400
N:This 4-part jig was written for my friend James Dumbelton 
N:who played with me in Waulk Elektrik and now in Spyka. I 
N:probably wrote it for one of his birthdays - 18th 21st so 
N:1996 or1999 -I can't remember! But it's a good one and we 
N:still perform it often in a set with Cassis de Maurice. It is the 
N:2nd track on the Spyka album.
K: Edor
D|:~E3BAB|dBA~B3|eBf edA|~B3dcA|
~E3BAB|dBA~B3|~B3dcA|BAB AFD:|
|:EeE dEc|~B3dcA|EeE dEc|Bed BAF|
EeE dEc|~B3dcA|~B3~B3|BAB AFD:|
|:~E3 EDE|BAB ~BAB|~E3~EDE|eBf edB|
~E3 EDE|BAB ~B3|dcA~B3|1BAB AFD:|2BABA2B||
|:fede2b|afe~f3|~f3baf|Bed BAF|
EeE dEc|defe2b|afe~f3|1Bed Bde:|2Bed BAF||
